X:0921
T:My time o ye Muses.
M:3/4
L:1/8
Q:1/4=100 "Tenderly"
I: ||
Z:Jack Campin * www.campin.me.uk * 2009
K:B Minor
dc |B2    B2      de    |{de}f2 f2    b>a   |   f2 g>f`ed  |     e4
fe |d<B   B2      d>e   |{de}f2 f2    b>a   |   f2 e>c d>^A|({A} B4):|
f>e|d3     e     (d/e/f)|    e2 f2    a2    |   ba`ag``gf  |({f}Te4)
f>a|b2 (3(baf) (3(efa)  |    f3  e (3(def)  |{e}d2 B2  A2  |     F4
d>e|f2    f2      gf    | {f}e2 e2   (e/f/g)|   f2 fd``cB  |({B} c4)
d>c|B2    B2      d>e   |{de}f2 f2    b>a   |   f2 ec``d^A |({A} B4)|]

